X:1
T:Devil's in Dublin, The
T:Devils of Dublin, The
M:C|
L:1/8
K:D
d2 dA BAGB|AFBF A~F3|A~d3 Adfd|e/f/e df e~B3|
deedB {c}BAFB|AFBF A~F3|ABde fdce|dBAG FD D2:|
|:a/g/f g/f/e ~f3e|dcBA BAFB|A~d3 Adfd|e~B3 e~B3|
abag ~f3e|defd BAFB|ABde fdce|dBAG FD D2:|

